X: 853
T: The piper's despair
C: anon.
O: Ireland
B: Francis O'Neill: "The Dance Music of Ireland" (1907) no. 769
R: Reel
Z: Transcribed by Frank Nordberg - http://www.musicaviva.com
F: http://www.musicaviva.com/abc/tunes/ireland/oneill-1001/oneill-1001-076
9.abc
M: C|
L: 1/8
K: G
EFGA BAFA|(3(Bcd) Ad (3(Bcd) AF|D2FD ADFD|(3(Bcd) Ad (3(Bcd) AF|
EFGA BAFA|(3(Bcd) Ad (3(Bcd) AF|D2FD A2FA|Beed Bee2||e2(ge) bege|bege beg
e|
defg adfd|adfd adfd|e2(ge) bege|bege bege|defg afdf|(3(efg) fd ecBG|]
W:
W:
W: From Musica Viva - http://www.musicaviva.com
W: the Internet center for free sheet music downloads.


